src/assets/img/icons/logo.svg

<svg width="245" height="62" viewBox="0 0 245 62" fill="none" xmlns="http://www.w3.org/2000/svg">
<path d="M2.77279 53V29.9H18.4528V35.325H8.79279V39.735H16.6328V45.16H8.79279V53H2.77279ZM22.7925 53V29.9H28.8125V47.575H38.3675V53H22.7925ZM42.573 53V29.9H48.593V53H42.573ZM74.6929 53H67.9729L62.7579 45.825H60.2729V53H54.2529V29.9H63.3179C65.9079 29.9 68.0429 30.635 69.7229 32.105C71.4029 33.5517 72.2429 35.465 72.2429 37.845C72.2429 40.7383 71.0295 42.9317 68.6029 44.425L74.6929 53ZM60.2729 35.15V40.575H63.3529C64.1929 40.575 64.8579 40.33 65.3479 39.84C65.8612 39.3267 66.1179 38.6617 66.1179 37.845C66.1179 37.0283 65.8612 36.375 65.3479 35.885C64.8579 35.395 64.1929 35.15 63.3529 35.15H60.2729ZM82.2162 53V35.325H75.2862V29.9H95.1662V35.325H88.2362V53H82.2162ZM98.8724 53V29.9H104.892V53H98.8724ZM125.007 29.9H131.027V53.42H129.102L116.572 41.275V53H110.552V29.48H112.477L125.007 41.45V29.9ZM135.5 41.45C135.454 38.1367 136.667 35.3017 139.14 32.945C141.614 30.5883 144.589 29.4333 148.065 29.48C152.382 29.48 155.695 31.195 158.005 34.625L153.805 38.195C152.289 36.0717 150.34 35.01 147.96 35.01C146.024 35.01 144.484 35.5933 143.34 36.76C142.22 37.9267 141.66 39.49 141.66 41.45C141.66 43.4333 142.255 45.0317 143.445 46.245C144.659 47.4583 146.28 48.065 148.31 48.065C150.504 48.065 152.195 47.3767 153.385 46V44.915H147.995V39.735H159.405V47.015C158.332 48.9283 156.792 50.48 154.785 51.67C152.779 52.8367 150.539 53.42 148.065 53.42C144.589 53.4667 141.614 52.3233 139.14 49.99C136.667 47.6333 135.454 44.7867 135.5 41.45ZM177.974 53V35.325H171.044V29.9H190.924V35.325H183.994V53H177.974ZM193.098 41.45C193.028 38.16 194.23 35.325 196.703 32.945C199.2 30.565 202.14 29.41 205.523 29.48C208.907 29.41 211.847 30.565 214.343 32.945C216.863 35.325 218.088 38.16 218.018 41.45C218.088 44.7633 216.863 47.5983 214.343 49.955C211.847 52.3117 208.907 53.4667 205.523 53.42C202.117 53.4667 199.177 52.3117 196.703 49.955C194.23 47.5983 193.028 44.7633 193.098 41.45ZM211.858 41.45C211.858 39.56 211.252 38.02 210.038 36.83C208.848 35.6167 207.355 35.01 205.558 35.01C203.692 35.01 202.175 35.605 201.008 36.795C199.842 37.985 199.258 39.5367 199.258 41.45C199.258 43.3633 199.842 44.9267 201.008 46.14C202.175 47.3067 203.692 47.89 205.558 47.89C207.378 47.89 208.883 47.295 210.073 46.105C211.263 44.915 211.858 43.3633 211.858 41.45ZM244.456 53H237.316L228.531 41.485V53H222.511V29.9H228.531V40.365L236.161 29.9H243.161L235.216 40.89L244.456 53Z" fill="#232323"/>
<path d="M162.928 9.27353H164.192L164.553 18.1122H164.553C164.559 18.3707 164.657 18.6185 164.829 18.8111C165.001 19.0037 165.236 19.1285 165.491 19.1628H165.636C165.872 19.1535 166.098 19.0671 166.281 18.9167C166.463 18.7661 166.592 18.5599 166.647 18.3295L170.185 6.8465C170.256 6.62086 170.212 6.3745 170.068 6.18677C169.924 5.99904 169.698 5.89367 169.463 5.90478H168.704L169.715 1.30428C169.781 0.98085 169.697 0.644808 169.486 0.391111C169.275 0.13742 168.961 -0.00635011 168.632 0.000215476L164.3 0.181387H164.3C164.042 0.187704 163.795 0.285996 163.603 0.458578C163.412 0.631411 163.287 0.866906 163.253 1.12309L162.17 8.44033C162.143 8.65081 162.209 8.86255 162.351 9.01997C162.494 9.18876 162.707 9.28225 162.928 9.27341L162.928 9.27353ZM164.661 1.6665L168.235 1.52171L167.116 6.55684C167.072 6.77263 167.128 6.99676 167.269 7.1658C167.409 7.33484 167.619 7.43086 167.838 7.42631H168.488L165.888 15.9027L165.6 8.44058C165.58 8.05474 165.263 7.7518 164.878 7.75226H163.723L164.661 1.6665Z" fill="#9DE83F"/>
<path d="M181.593 17.1481C181.64 16.8198 181.535 16.4876 181.308 16.2477L178.774 13.6546H178.774C178.6 13.4752 178.369 13.3629 178.122 13.3365C177.874 13.3102 177.625 13.3717 177.418 13.5106L172.207 17.0761C172.027 17.1959 171.91 17.3916 171.889 17.6087C171.869 17.8255 171.946 18.0403 172.1 18.1925L172.778 18.9128L167.746 23.9911C167.55 24.1936 167.44 24.4662 167.44 24.7498C167.441 25.0332 167.552 25.3053 167.749 25.507C167.947 25.7087 168.215 25.824 168.496 25.8281C168.657 25.8276 168.815 25.7906 168.96 25.72L177.953 21.3982H177.953C178.157 21.2932 178.298 21.096 178.334 20.8678C178.369 20.6397 178.294 20.4083 178.132 20.2456L177.775 19.8853L181.058 17.9406H181.058C181.349 17.7752 181.547 17.4821 181.593 17.1482L181.593 17.1481ZM176.24 19.0929C176.055 19.2067 175.93 19.3994 175.903 19.6167C175.875 19.8337 175.947 20.0521 176.098 20.2096L176.419 20.5337L170.209 23.523L174.313 19.381C174.585 19.1009 174.585 18.6527 174.313 18.3726L173.706 17.7603L177.918 14.879L179.916 16.932L176.24 19.0929Z" fill="#9DE83F"/>
<path d="M162.663 24.5766L157.321 13.3009C157.223 13.0884 157.03 12.9367 156.803 12.8934C156.575 12.8502 156.341 12.921 156.174 13.0834L155.6 13.6635L153.162 9.42134C152.993 9.13227 152.702 8.93829 152.372 8.8958C152.043 8.85306 151.713 8.96687 151.477 9.20384L148.323 12.3945C148.144 12.5715 148.032 12.8059 148.006 13.0573C147.98 13.3087 148.041 13.5614 148.179 13.7723L152.409 20.0808C152.529 20.2641 152.724 20.383 152.939 20.404C153.155 20.4252 153.369 20.3463 153.521 20.1895L154.453 19.2469L160.906 25.8093C161.149 26.041 161.484 26.1454 161.814 26.0921C162.143 26.0384 162.43 25.8333 162.589 25.5367C162.748 25.2398 162.762 24.8852 162.627 24.5767L162.663 24.5766ZM154.955 17.7241C154.676 17.4477 154.23 17.4477 153.951 17.7241L153.126 18.558L149.541 13.2283L152.194 10.5816L154.847 15.2225C154.96 15.4109 155.152 15.5371 155.368 15.5654C155.584 15.5937 155.802 15.5209 155.958 15.3674L156.46 14.8598L160.44 23.3075L154.955 17.7241Z" fill="#9DE83F"/>
</svg>

<svg xmlns="http://www.w3.org/2000/svg" fill="none" viewBox="0 0 245 62"><path fill="#232323" d="M2.773 53V29.9h15.68v5.425h-9.66v4.41h7.84v5.425h-7.84V53h-6.02Zm20.02 0V29.9h6.02v17.675h9.555V53H22.791Zm19.78 0V29.9h6.02V53h-6.02Zm32.12 0h-6.72l-5.215-7.175h-2.485V53h-6.02V29.9h9.065c2.59 0 4.725.735 6.405 2.205 1.68 1.447 2.52 3.36 2.52 5.74 0 2.893-1.213 5.087-3.64 6.58L74.693 53Zm-14.42-17.85v5.425h3.08c.84 0 1.505-.245 1.995-.735.513-.513.77-1.178.77-1.995 0-.817-.257-1.47-.77-1.96-.49-.49-1.155-.735-1.995-.735h-3.08ZM82.216 53V35.325h-6.93V29.9h19.88v5.425h-6.93V53h-6.02Zm16.656 0V29.9h6.02V53h-6.02Zm26.135-23.1h6.02v23.52h-1.925l-12.53-12.145V53h-6.02V29.48h1.925l12.53 11.97V29.9ZM135.5 41.45c-.046-3.313 1.167-6.148 3.64-8.505 2.474-2.357 5.449-3.512 8.925-3.465 4.317 0 7.63 1.715 9.94 5.145l-4.2 3.57c-1.516-2.123-3.465-3.185-5.845-3.185-1.936 0-3.476.583-4.62 1.75-1.12 1.167-1.68 2.73-1.68 4.69 0 1.983.595 3.582 1.785 4.795 1.214 1.213 2.835 1.82 4.865 1.82 2.194 0 3.885-.688 5.075-2.065v-1.085h-5.39v-5.18h11.41v7.28c-1.073 1.913-2.613 3.465-4.62 4.655-2.006 1.167-4.246 1.75-6.72 1.75-3.476.047-6.451-1.097-8.925-3.43-2.473-2.357-3.686-5.203-3.64-8.54ZM177.974 53V35.325h-6.93V29.9h19.88v5.425h-6.93V53h-6.02Zm15.124-11.55c-.07-3.29 1.132-6.125 3.605-8.505 2.497-2.38 5.437-3.535 8.82-3.465 3.384-.07 6.324 1.085 8.82 3.465 2.52 2.38 3.745 5.215 3.675 8.505.07 3.313-1.155 6.148-3.675 8.505-2.496 2.357-5.436 3.512-8.82 3.465-3.406.047-6.346-1.108-8.82-3.465-2.473-2.357-3.675-5.192-3.605-8.505Zm18.76 0c0-1.89-.606-3.43-1.82-4.62-1.19-1.213-2.683-1.82-4.48-1.82-1.866 0-3.383.595-4.55 1.785-1.166 1.19-1.75 2.742-1.75 4.655 0 1.913.584 3.477 1.75 4.69 1.167 1.167 2.684 1.75 4.55 1.75 1.82 0 3.325-.595 4.515-1.785 1.19-1.19 1.785-2.742 1.785-4.655ZM244.456 53h-7.14l-8.785-11.515V53h-6.02V29.9h6.02v10.465l7.63-10.465h7l-7.945 10.99 9.24 12.11Z"/><path fill="#9DE83F" d="M162.928 9.274h1.264l.361 8.838a1.087 1.087 0 0 0 .938 1.05h.145a1.082 1.082 0 0 0 1.011-.832l3.538-11.483a.726.726 0 0 0-.722-.942h-.759l1.011-4.6A1.088 1.088 0 0 0 168.632 0L164.3.181a1.082 1.082 0 0 0-1.047.942L162.17 8.44a.727.727 0 0 0 .181.58.719.719 0 0 0 .577.253Zm1.733-7.607 3.574-.145-1.119 5.035a.724.724 0 0 0 .722.87h.65l-2.6 8.476-.288-7.462a.724.724 0 0 0-.722-.689h-1.155l.938-6.085ZM181.593 17.148a1.087 1.087 0 0 0-.285-.9l-2.534-2.593a1.067 1.067 0 0 0-1.356-.144l-5.211 3.565a.723.723 0 0 0-.107 1.116l.678.72-5.032 5.08a1.092 1.092 0 0 0 .003 1.515c.198.202.466.317.747.321.161 0 .319-.037.464-.108l8.993-4.322a.721.721 0 0 0 .179-1.152l-.357-.36 3.283-1.945a1.08 1.08 0 0 0 .535-.793Zm-5.353 1.945a.724.724 0 0 0-.142 1.117l.321.324-6.21 2.989 4.104-4.142a.725.725 0 0 0 0-1.008l-.607-.613 4.212-2.881 1.998 2.053-3.676 2.16ZM162.663 24.577 157.321 13.3a.711.711 0 0 0-1.147-.218l-.574.58-2.438-4.242a1.068 1.068 0 0 0-1.685-.218l-3.154 3.191a1.1 1.1 0 0 0-.144 1.378l4.23 6.309a.713.713 0 0 0 1.112.109l.932-.943 6.453 6.562a1.068 1.068 0 0 0 1.683-.272 1.1 1.1 0 0 0 .038-.96h.036Zm-7.708-6.853a.711.711 0 0 0-1.004 0l-.825.834-3.585-5.33 2.653-2.646 2.653 4.64a.71.71 0 0 0 1.111.145l.502-.507 3.98 8.448-5.485-5.584Z"/></svg>
